src/16/panel/skype-status-connected-notification.svg

<svg xmlns="http://www.w3.org/2000/svg" width="16" height="16" version="1">
 <defs>
  <style id="current-color-scheme" type="text/css">
   .ColorScheme-Text { color:#bebebe; } .ColorScheme-Highlight { color:#5294e2; }
  </style>
 </defs>
 <path style="fill:currentColor" class="ColorScheme-Text" d="M 4.5 1 A 3.5 3.5 0 0 0 1 4.5 A 3.5 3.5 0 0 0 2.0859375 7.0292969 A 6 6 0 0 0 2 8 A 6 6 0 0 0 8 14 A 6 6 0 0 0 8.9707031 13.917969 A 3.5 3.5 0 0 0 11.5 15 A 3.5 3.5 0 0 0 15 11.5 A 3.5 3.5 0 0 0 13.914062 8.9707031 A 6 6 0 0 0 14 8 A 6 6 0 0 0 8 2 A 6 6 0 0 0 7.0292969 2.0820312 A 3.5 3.5 0 0 0 4.5 1 z M 8.1269531 4 C 10.100953 4 11.119141 5.0423969 11.119141 5.6542969 C 11.119141 6.2681969 10.823844 6.359375 10.339844 6.359375 C 9.3988437 6.359375 9.7844844 5.2265625 8.0214844 5.2265625 C 7.4374844 5.2265625 6.7089844 5.4920281 6.7089844 6.1738281 C 6.7089844 6.7219281 7.3551406 6.9239781 8.4941406 7.2050781 C 10.212141 7.6650781 11.5 8.1241719 11.5 9.7011719 C 11.5 11.232172 10.253297 12 8.2792969 12 C 6.3061969 12 5.0449219 10.819031 5.0449219 10.207031 C 5.0449219 9.5950312 5.2773187 9.4414063 5.7617188 9.4414062 C 6.7045188 9.4414062 6.5786969 10.730469 8.3417969 10.730469 C 8.9267969 10.730469 9.7910156 10.463297 9.7910156 9.7792969 C 9.7910156 9.2332969 9.7451406 9.0440312 8.4941406 8.7070312 C 7.1581406 8.5260312 5 8.0909281 5 6.4238281 C 5 4.8929281 6.1556062 4.0019531 8.1289062 4.0019531 L 8.1269531 4 z"/>
 <path style="fill:currentColor" class="ColorScheme-Text" d="M -25.069,-9.0812"/>
 <circle style="fill:currentColor" class="ColorScheme-Highlight" cx="14.5" cy="2.5" r="1.5"/>
</svg>

<svg xmlns="http://www.w3.org/2000/svg" width="16" height="16" version="1"><defs><style id="current-color-scheme" type="text/css">.ColorScheme-Text{color:#bebebe}</style></defs><path class="ColorScheme-Text" d="M4.5 1A3.5 3.5 0 0 0 1 4.5a3.5 3.5 0 0 0 1.086 2.53A6 6 0 0 0 2 8a6 6 0 0 0 6 6 6 6 0 0 0 .97-.082A3.5 3.5 0 0 0 11.5 15a3.5 3.5 0 0 0 3.5-3.5 3.5 3.5 0 0 0-1.086-2.53A6 6 0 0 0 14 8a6 6 0 0 0-6-6 6 6 0 0 0-.97.082A3.5 3.5 0 0 0 4.5 1zm3.627 3c1.974 0 2.992 1.042 2.992 1.654 0 .614-.295.705-.78.705-.94 0-.555-1.132-2.318-1.132-.584 0-1.312.265-1.312.947 0 .548.646.75 1.785 1.031 1.718.46 3.006.92 3.006 2.496C11.5 11.232 10.253 12 8.28 12c-1.974 0-3.235-1.181-3.235-1.793 0-.612.232-.766.717-.766.943 0 .817 1.29 2.58 1.29.585 0 1.449-.268 1.449-.952 0-.546-.046-.735-1.297-1.072C7.158 8.526 5 8.091 5 6.424c0-1.531 1.156-2.422 3.129-2.422L8.127 4z" fill="currentColor"/><circle cx="14.5" cy="2.5" r="1.5" fill="currentColor" color="#5294e2"/></svg>
